X: 28826
T: My Pretty Fair Maid
R: jig
M: 6/8
K: Gmajor
|:A|B2 d c2 A|BGB AFD|B2 d c2 A|BGF G2 A|
B2 d c2 A|B/c/dB AFD|Bdd cAA|1 BGF G2:|2 B2 F GB/c/d||
|:g2 g fdd|e2 e dBG|g2 g fd/e/f|e^ce d2 e/f/|
g2 g f2 f|ee/f/g dBG|B2 d cAc|1 BGF GBd:|2 BGG G2||

